icon/pk/tub.svg

<svg viewBox="0 0 48 48" fill="none" xmlns="http://www.w3.org/2000/svg" height="1em" width="1em">
  <path d="M40 23V12C40 8.13401 36.866 5 33 5V5C29.134 5 26 8.13401 26 12V13" stroke="black" stroke-width="4" stroke-linecap="round"/>
  <path d="M40 29V23H8V29C8 33.4183 11.5817 37 16 37H32C36.4183 37 40 33.4183 40 29Z" fill="#2F88FF" stroke="black" stroke-width="4" stroke-linecap="round"/>
  <path d="M43 23H5" stroke="black" stroke-width="4" stroke-linecap="round"/>
  <path d="M17 37L13 43" stroke="black" stroke-width="4" stroke-linecap="round" stroke-linejoin="round"/>
  <path d="M31 37L35 43" stroke="black" stroke-width="4" stroke-linecap="round" stroke-linejoin="round"/>
</svg>

<svg width="48" height="48" fill="none" xmlns="http://www.w3.org/2000/svg"><path d="M40 23V12a7 7 0 0 0-7-7v0a7 7 0 0 0-7 7v1" stroke="#000" stroke-width="4" stroke-linecap="round"/><path d="M40 29v-6H8v6a8 8 0 0 0 8 8h16a8 8 0 0 0 8-8Z" fill="#2F88FF" stroke="#000" stroke-width="4" stroke-linecap="round"/><path d="M43 23H5" stroke="#000" stroke-width="4" stroke-linecap="round"/><path d="m17 37-4 6M31 37l4 6" stroke="#000" stroke-width="4" stroke-linecap="round" stroke-linejoin="round"/></svg>
